!!!COM: Bach, Johann Sebastian
!!!CDT: 1685/3/-1750/7/28
!!!OPR@@DE: Das wohltemperierte Klavier
!!!OPR@EN: The Well-Tempered Clavier
!!!OTL: The Well-Tempered Clavier, Book 1, Fugue 3 in C-sharp major
!!!SCT: BWV 848b
!!!parts: 3
!! Note: The texture expands to four voices in the final measure (measure 55).
**kern	**kern	**kern
*staff2	*staff1	*staff1
*clefF4	*clefG2	*clefG2
*k[f#c#g#d#a#e#b#]	*k[f#c#g#d#a#e#b#]	*k[f#c#g#d#a#e#b#]
*M4/4	*M4/4	*M4/4
*C#:	*C#:	*C#:
*MM106	*MM106	*MM106
=1	=1	=1
1r	1r	4r
.	.	8r
.	.	8g#
.	.	16a#L
.	.	16g#
.	.	16f#
.	.	16g#J
.	.	8ee#L
.	.	8cc#J
=2	=2	=2
1r	1r	8g#L
.	.	16f#
.	.	16e#J
.	.	8f#L
.	.	8dd#J
.	.	8e#L
.	.	8cc#J
.	.	8d#L
.	.	8b#J
=3	=3	=3
1r	4r	8c#L
.	.	16cc#
.	.	16b#J
.	8r	16cc#L
.	.	16dd#
.	8c#	16ee#
.	.	16ff#J
.	16e#L	16gg#L
.	16d#	16ff##
.	16c#	16ee#
.	16d#J	16ff##J
.	8b#L	16gg#L
.	.	16ff#
.	8g#J	16ee#
.	.	16dd#J
=4	=4	=4
1r	8d#L	[4ee#
.	16c#	.
.	16B#J	.
.	8c#L	16ee#]L
.	.	16dd#
.	8a#J	16cc#
.	.	16ee#J
.	8B#L	16dd#L
.	.	16cc#
.	8g#J	16b#
.	.	16dd#J
.	8A#L	16cc#L
.	.	16b#
.	8f##J	16cc#
.	.	16a#J
=5	=5	=5
4r	8G#L	8b#L
.	16g#	8dd#J
.	16f##J	.
8r	16g#L	2ff#
.	16a#	.
8G#	16b#	.
.	16g#J	.
16A#L	16cc#L	.
16G#	16b#	.
16F#	16a#	.
16G#J	16b#J	.
8e#L	16cc#L	[4ee#
.	16b#	.
8c#J	16a#	.
.	16g#J	.
=6	=6	=6
8G#L	[4a#	4ee#]
16F#	.	.
16E#J	.	.
8F#L	16a#]L	[4dd#
.	16g#	.
8d#J	16f#	.
.	16a#J	.
8E#L	16g#L	8dd#]L
.	16f#	.
8c#J	16e#	8cc#J
.	16g#J	.
8D#L	16f#L	8b#L
.	16e#	.
8B#J	16f#	[8dd#J
.	16d#J	.
=7	=7	=7
8C#L	4e#	8dd#]L
16c#	.	8g#J
16B#J	.	.
16c#L	8r	4.ee#
16d#	.	.
16e#	8g#	.
16c#J	.	.
16A#L	4.cc#	.
16B#	.	.
16c#	.	16ee#L
16A#J	.	16cc#J
16F##L	.	[4a#
16G#	.	.
16A#	16cc#L	.
16F##J	16a#J	.
=8	=8	=8
8BB#L	4d#	8a#]L
16B#	.	8a#J
16A#J	.	.
16B#L	8r	4.dd#
16c#	.	.
16d#	8f##	.
16B#J	.	.
16G#L	4.b#	.
16A#	.	.
16B#	.	16dd#L
16G#J	.	16b#J
16E#L	.	[4g#
16F##	.	.
16G#	16b#L	.
16E#J	16g#J	.
=9	=9	=9
8AA#L	4c#	8g#]L
16A#	.	8g#J
16G#J	.	.
16A#L	8r	[4cc#
16B#	.	.
16c#	8e#	.
16A#J	.	.
16F##L	[4a#	16cc#]L
16G#	.	16b#
16A#	.	16cc#
16F##J	.	16a#J
16D#L	16a#]L	[4aa#
16E#	16cc#	.
16F##	16dd#	.
16D#J	16a#J	.
=10	=10	=10
8GG#L	4b#	16aa#]L
.	.	16gg#
16G#	.	16ff##
16A#J	.	16aa#J
8B#L	8r	16gg#L
.	.	16dd#
8G#J	[8g#	16ee#
.	.	16ff#J
4c#	16g#]L	16ee#L
.	16f##	16dd#
.	16e#	16cc#
.	16f##J	16dd#J
4B#	16g#L	8bb#L
.	16f#	.
.	16e#	8gg#J
.	16d#J	.
=11	=11	=11
8A#L	[4e#	8dd#L
8G#J	.	16cc#
.	.	16b#J
4F##	16e#]L	8cc#L
.	16d#	.
.	16c#	8aa#J
.	16e#J	.
4G#	16d#L	8b#L
.	16c#	.
.	16B#	8gg#J
.	16d#J	.
4D#	16c#L	8a#L
.	16B#	.
.	16c#	8ff##J
.	16A#J	.
=12	=12	=12
4G#	8B#L	16g#L
.	.	16a#
.	8d#J	16b#
.	.	16cc#J
8r	4g#	16b#L
.	.	16a#
16d#L	.	16g#
16B#J	.	16b#J
4G#	8r	16ee#L
.	.	16dd#
*	*clefF4	*
.	16BnL	16cc##
.	16G#J	16ee#J
8r	4E#	16gg#L
.	.	16ff#
16G#L	.	16ee#
16E#J	.	16gg#J
=13	=13	=13
4C##	8r	8bbnL
.	16E#L	16aa#
.	16G#J	16gg#J
8r	4Bn	16ff#L
.	.	16ee#
8E#	.	16dd#
.	.	16cc##J
8F#L	8A#L	16dd#L
.	.	16ff#
8G#J	8BJ	16ee#
.	.	16dd#J
8A#L	8A#L	16cc##L
.	.	16ee#
8AA#J	8C##J	16a#
.	.	16g#J
=14	=14	=14
4DD#	4D#	16f#L
.	.	16e#
.	.	16d#
.	.	16c##J
8r	4r	16d#L
.	.	16e#
8D#	.	16f#
.	.	16g#J
16F#L	2r	16a#L
16E#	.	16g#
16D#	.	16f#
16E#J	.	16g#J
8c#L	.	16a#L
.	.	16g#
8A#J	.	16f#
.	.	16e#J
=15	=15	=15
8E#L	1r	[4f#
16D#	.	.
16C#J	.	.
8D#L	.	16f#]L
.	.	16e#
8B#J	.	16d#
.	.	16f#J
8C#L	.	16e#L
.	.	16d#
8A#J	.	16c#
.	.	16e#J
8BB#L	.	16d#L
.	.	16c#
8G##J	.	16d#
.	.	16B#J
=16	=16	=16
8AA#L	4r	16c#L
.	.	16e#
16A#	.	16f#
16G##J	.	16e#J
16A#L	8r	[4cc#
16B#	.	.
*	*clefG2	*
16c#	8e#	.
16A#J	.	.
16F##L	[4a#	16cc#]L
16G#	.	16b#
16A#	.	16cc#
16F##J	.	16a#J
16D#L	16a#]L	[4aa#
16E#	16cc#	.
16F##	16dd#	.
16D#J	16a#J	.
=17	=17	=17
8GG#L	8b#	16aa#]L
.	.	16d#
16G#	8r	16e#
16F##J	.	16d#J
16G#L	8r	[4b#
16A#	.	.
16B#	8d#	.
16G#J	.	.
16E#L	[4g#	16b#]L
16F##	.	16a#
16G#	.	16b#
16E#J	.	16g#J
16C#L	16g#]L	[4gg#
16D#	16b#	.
16E#	16cc#	.
16C#J	16g#J	.
=18	=18	=18
8FF##L	8a#	16gg#]L
.	.	16c#
16F##	8r	16d#
16E#J	.	16c#J
16F##L	8r	[4a#
16G#	.	.
16A#	8c#	.
16F##J	.	.
16D##L	[4f##	16a#]L
16E#	.	16g#
16F##	.	16a#
16D##J	.	16f##J
16BB#L	16f##]L	[4ff##
16C##	16a#	.
16D##	16b#	.
16BB#J	16f##J	.
=19	=19	=19
16EE#L	4g#	16ff##]L
16FF##	.	16dd##
16GG#	.	16ee#
16AA#J	.	16cc#J
16BB#L	8r	2a#
16C##	.	.
16D##	8B#	.
16BB#J	.	.
16E#L	16c#L	.
16D#	16B#	.
16C#	16A#	.
16D#J	16B#J	.
16E#L	8g#L	[4g#
16D#	.	.
16C#	8e#J	.
16BB#J	.	.
=20	=20	=20
[4C#	8B#L	4g#]
.	16A#	.
.	16G#J	.
16C#]L	8A#L	[4f##
16BB#	.	.
16AA#	8f##J	.
16C#J	.	.
16BB#L	8G#L	8f##]L
16AA#	.	.
16GG#	8e#J	8e#J
16BB#J	.	.
16AA#L	8F##L	8d##L
16GG#	.	.
16AA#	8d##J	8f##J
16FF##J	.	.
*	*clefF4	*
=21	=21	=21
8GG#L	4.E#	16b#L
.	.	16a#
8C#J	.	16g#
.	.	16b#J
8FF##L	.	16a#L
.	.	16g#
8BB#J	8D##	16f##
.	.	16a#J
8EE#L	8E#L	16g#L
.	.	16e#
8AA#J	8D##J	16cc#
.	.	16a#J
8GG#L	8E#L	16b#L
.	.	16g#
8C#J	8A#J	16ff#
.	.	16dd##J
=22	=22	=22
2BB#	8G#L	16dd##L
.	.	16ee#
.	16F##	16aa##
.	16E#J	16bb#J
.	8F##L	8.dd##L
.	8A#J	.
.	.	16ee#J
4E#	16G#L	4ee#
.	16A#	.
.	16B#	.
.	16G#J	.
4r	16E#L	8r
.	16F#	.
.	16G#	8ee#
.	16E#J	.
=23	=23	=23
1r	16C##L	16bnL
.	16D#	16a#
.	16E#	16g#
.	16C##J	16a#J
.	16AA#L	8ee#L
.	16C##	.
.	16E#	8cc##J
.	16A#J	.
.	16D#L	8g#L
.	16F#	.
.	16A#	16f#
.	16c##J	16e#J
.	16d#L	8f#L
.	16e#	.
.	16f#	8dd#J
.	16d#J	.
=24	=24	=24
4r	16B#L	16anL
.	16c#	16g#
.	16d#	16f#
.	16B#J	16g#J
16r	[4G#	8dd#L
16GG#L	.	.
16AA#	.	8b#J
16BB#J	.	.
[4C#	16G#]L	8f#L
.	16G#	.
.	16A#	16e#
.	16B#J	16d#J
16C#]L	8c#	16e#L
16D#	.	16g#
16E#	8r	16cc#
16F##J	.	16dd#J
*	*clefG2	*
=25	=25	=25
16G#L	4r	16ee#L
16F##	.	16dd#
16E#	.	16cc#
16F##J	.	16dd#J
16G#L	2b#	8bb#L
16F##	.	.
16E#	.	8gg#J
16D#J	.	.
[4E#	.	8dd#L
.	.	16cc#
.	.	16b#J
16E#]L	[4a#	8cc#L
16D#	.	.
16C#	.	8aa#J
16E#J	.	.
=26	=26	=26
16D#L	8a#]L	8b#L
16C#	.	.
16BB#	8g#J	8gg#J
16D#J	.	.
16C#L	8f##L	8a#L
16BB#	.	.
16AA#	8a#J	8ff##J
16C#J	.	.
8BB#L	8d#	16g#L
.	.	16d#
8D#J	8r	16e#
.	.	16f##J
[4F#	8r	16g#L
.	.	16a#
*	*clefF4	*
.	8G#	16b#
.	.	16g#J
=27	=27	=27
4F#]	16A#L	16cc#L
.	16G#	16b#
.	16F#	16a#
.	16G#J	16b#J
2E#	8e#L	16cc#L
.	.	16b#
.	8c#J	16a#
.	.	16g#J
.	8G#L	[4a#
.	16F#	.
.	16E#J	.
[4D#	8F#L	16a#]L
.	.	16g#
.	8d#J	16f#
.	.	16a#J
=28	=28	=28
8D#]L	8E#L	16g#L
.	.	16f#
8C#J	8c#J	16e#
.	.	16g#J
8D#L	8D#L	16f#L
.	.	16e#
8GG#J	8B#J	16d#
.	.	16f#J
16C#L	4c#	8e#L
16D#	.	.
16E#	.	8g#J
16F#J	.	.
16E#L	8r	4cc#
16D#	.	.
*	*clefG2	*
16C#	16gg#L	.
16E#J	16ee#J	.
=29	=29	=29
16A#L	4cc#	8r
16G#	.	.
16F##	.	16eenL
16A#J	.	16cc#J
16c#L	8r	4a#
16Bn	.	.
16A#	16cc#L	.
16c#J	16a#J	.
8enL	4f##	8r
16d#	.	16a#L
16c#J	.	16cc#J
16BL	8r	4ee
16A#	.	.
16G#	8cc#	.
16F##J	.	.
=30	=30	=30
16G#L	4bn	8dd#L
16Bn	.	.
16A#	.	8gg#J
16G#J	.	.
16F##L	4a#	8cc#L
16E#	.	.
16D#	.	8ff##J
16C#J	.	.
16BBnL	8g#	8g#L
16C#	.	.
16D#	8r	16gg#
16BBJ	.	16ff##J
8GG#L	4r	16gg#L
.	.	16aa#
16G#	.	16bbn
16E#J	.	16gg#J
*	*clefF4	*
=31	=31	=31
8C#	8r	16ee#L
.	.	16ff#
8r	16BnL	16gg#
.	16G#J	16ee#J
8r	8E#	16cc#L
.	.	16dd#
16C#L	8r	16ee#
16AA#J	.	16cc#J
8FF#	8r	16a#L
.	.	16b#
8r	16A#L	16cc#
.	16F#J	16a#J
8r	8D#	16ff#L
.	.	16gg#
16F#L	8r	16aa#
16D#J	.	16ff#J
=32	=32	=32
8BB#	8r	16dd#L
.	.	16ee#
8r	16A#L	16ff#
.	16F#J	16dd#J
8r	8D#	16b#L
.	.	16cc#
16BB#L	8r	16dd#
16GG#J	.	16b#J
8EE#	8r	16g#L
.	.	16a#
8r	16G#L	16b#
.	16E#J	16g#J
8r	8C##	16ee#L
.	.	16ff#
16E#L	8r	16gg#
16C##J	.	16ee#J
=33	=33	=33
8AA#	8r	16cc##L
.	.	16dd#
8r	16G#L	16ee#
.	16E#J	16cc##J
8r	8C##	16a#L
.	.	16b#
16AA#L	8r	16cc##
16FF#J	.	16a#J
8DD#	8r	16f#L
.	.	16g#
8r	16F#L	16a#
.	16D#J	16f#J
8r	8BB#	16dd#L
.	.	16ee#
16D#L	8r	16ff#
16BB#J	.	16dd#J
=34	=34	=34
8GG#	8r	16b#L
.	.	16cc#
8r	16F#L	16dd#
.	16D#J	16b#J
8r	8BB#	16g#L
.	.	16a#
16GG#L	8r	16b#
16EE#J	.	16g#J
4CC#	2r	16e#L
.	.	16f#
.	.	16g#
.	.	16e#J
4r	.	16c#L
.	.	16e#
.	.	16g#
.	.	16a#J
=35	=35	=35
8r	1r	16bnL
.	.	16a#
16BnL	.	16g#
16C#J	.	16a#J
16A#L	.	8ff#L
16C#	.	.
16G#	.	8cc#J
16C#J	.	.
16F#L	.	8a#L
16C#	.	.
16E#	.	16g#
16D#J	.	16f#J
8E#L	.	16g#L
.	.	16c#
8GG#J	.	16e#
.	.	16g#J
=36	=36	=36
8r	1r	16a#L
.	.	16g#
16A#L	.	16f#
16C#J	.	16g#J
16G#L	.	8ee#L
16C#	.	.
16F#	.	8cc#J
16C#J	.	.
16E#L	.	8g#L
16C#	.	.
16D#	.	16f#
16C#J	.	16e#J
8D#L	.	16f#L
.	.	16B#
8GG#J	.	16d#
.	.	16f#J
=37	=37	=37
8r	1r	16g#L
.	.	16f#
16G#L	.	16e#
16GG#J	.	16f#J
16F#L	.	8dd#L
16GG#	.	.
16E#	.	8b#J
16GG#J	.	.
16D#L	.	8f#L
16GG#	.	.
16C#	.	16e#
16BB#J	.	16d#J
16C#L	.	16e#L
16GG#	.	16g#
16E#	.	16a#
16D#J	.	16b#J
=38	=38	=38
16E#L	1r	16cc#L
16GG#	.	16dd#
16G#	.	16ee#
16F#J	.	16dd#J
16G#L	.	16ff#L
16GG#	.	16ee#
16A#	.	16dd#
16GG#J	.	16cc#J
16B#L	.	[2gg#T
16c#	.	.
16d#	.	.
16B#J	.	.
*clefG2	*	*
16G#L	.	.
16B#	.	.
16d#	.	.
16e#J	.	.
=39	=39	=39
16f#L	1r	16gg#]L
16e#	.	16gg#
16d#	.	16ff#
16e#J	.	16gg#J
8cc#L	.	16ee#L
.	.	16gg#
8g#J	.	16dd#
.	.	16gg#J
8e#L	.	16cc#L
.	.	16gg#
16d#	.	16b#
16c#J	.	16a#J
16d#L	.	16b#L
16G#	.	16dd#
16c#	.	16ee#
16d#J	.	16ff#J
=40	=40	=40
16e#L	1r	16gg#L
16d#	.	16ff#
16c#	.	16ee#
16d#J	.	16gg#J
8b#L	.	16dd#L
.	.	16gg#
8g#J	.	16cc#
.	.	16gg#J
8d#L	.	16b#L
.	.	16gg#
16c#	.	16a#
16B#J	.	16g#J
16c#L	.	16a#L
16G#	.	16cc#
16B#	.	16dd#
16c#J	.	16ee#J
=41	=41	=41
16d#L	1r	16ff#L
16c#	.	16ee#
16B#	.	16dd#
16c#J	.	16ee#J
8a#L	.	16cc#L
.	.	16dd#
8f##J	.	16b#
.	.	16dd#J
8c#L	.	16a#L
.	.	16dd#
16B#	.	16g#
16A#J	.	16f##J
16B#L	.	16g#L
16G#	.	16b#
16A#	.	16cc#
16B#J	.	16dd#J
=42	=42	=42
16c#L	1r	16ee#L
16d#	.	16ff#
16e#	.	16gg#
16d#J	.	16aa#J
16f#L	.	8b#L
16e#	.	.
16d#	.	8g#J
16c#J	.	.
8f#L	.	16a#L
.	.	16g#
*clefF4	*	*
16A#	.	16f#
16B#J	.	16g#J
16c#L	.	8ee#L
16B#	.	.
16A#	.	8cc#J
16G#J	.	.
=43	=43	=43
[4A#	1r	8g#L
.	.	16f#
.	.	16e#J
16A#]L	.	8f#L
16G#	.	.
16F#	.	8dd#J
16A#J	.	.
16G#L	.	8e#L
16F#	.	.
16E#	.	8cc#J
16G#J	.	.
16F#L	.	8d#L
16E#	.	.
16F#	.	8b#J
16D#J	.	.
=44	=44	=44
8.E#L	4r	8c#L
.	.	16cc#
16G#J	.	16b#J
16A#L	8r	16cc#L
16B#	.	16dd#
*	*clefG2	*
[8c#J	16c#L	16ee#
.	16d#J	16ff#J
4c#]	16e#L	16gg#L
.	16d#	16ff#
.	16c#	16ee#
.	16d#J	16ff#J
[4B#	8b#L	16gg#L
.	.	16ff#
.	8g#J	16ee#
.	.	16dd#J
=45	=45	=45
4B#]	8d#L	[4ee#
.	16c#	.
.	16B#J	.
[4A#	8c#L	16ee#]L
.	.	16dd#
.	8a#J	16cc#
.	.	16ee#J
8A#]L	8B#L	16dd#L
.	.	16cc#
8G#J	8g#J	16b#
.	.	16dd#J
8A#L	8A#L	16cc#L
.	.	16b#
8D#J	8f##J	16cc#
.	.	16a#J
=46	=46	=46
4G#	8G#L	8b#L
.	16g#	8dd#J
.	16f#J	.
8r	16g#L	2ff#
.	16a#	.
8G#	16b#	.
.	16g#J	.
16A#L	16cc#L	.
16G#	16b#	.
16F#	16a#	.
16G#J	16b#J	.
8e#L	16cc#L	[4ee#
.	16b#	.
8c#J	16a#	.
.	16g#J	.
=47	=47	=47
8G#L	[4a#	4ee#]
16F#	.	.
16E#J	.	.
8F#L	16a#]L	[4dd#
.	16g#	.
8d#J	16f#	.
.	16a#J	.
8E#L	16g#L	8dd#]L
.	16f#	.
8c#J	16e#	8cc#J
.	16g#J	.
8D#L	16f#L	8b#L
.	16e#	.
8B#J	16f#	[8dd#J
.	16d#J	.
=48	=48	=48
16C#L	[2e#	8dd#]L
16GG#	.	.
16C#	.	8g#J
16D#J	.	.
16E#L	.	8cc#L
16F#	.	.
16G#	.	8bnJ
16E#J	.	.
16F#L	8e#]L	[2a#
16FF#	.	.
16F#	8c#J	.
16E#J	.	.
16F#L	8f#L	.
16G#	.	.
16A#	8e#J	.
16F#J	.	.
=49	=49	=49
16D#L	4.f#	8a#]L
16E#	.	.
16F#	.	16a#
16D#J	.	16f#J
16BB#L	.	[4d#
16C#	.	.
16D#	16f#L	.
16BB#J	16d#J	.
8EE#L	4G#	8d#]L
16E#	.	8d#J
16D#J	.	.
16E#L	8r	[4g#
16F#	.	.
16G#	8B#	.
16E#J	.	.
=50	=50	=50
16C##L	4.e#	8g#]L
16D#	.	.
16E#	.	16g#
16C##J	.	16e#J
16AA#L	.	[4c##
16BB#	.	.
16C##	16e#L	.
16AA#J	16c##J	.
8DD#L	4F#	8c##]L
16D#	.	8A#J
16C##J	.	.
16D#L	8r	[4f#
16E#	.	.
16F#	8A#	.
16D#J	.	.
=51	=51	=51
16BB#L	[4d#	16f#]L
16C#	.	16e#
16D#	.	16f#
16BB#J	.	16d#J
16GG#L	16d#]L	[4dd#
16AA#	16f#	.
16BB#	16g#	.
16GG#J	16d#J	.
8CC#L	4e#	16dd#]L
.	.	16cc#
16C#	.	16b#
16D#J	.	16dd#J
8E#L	8r	16cc#L
.	.	16g#
*	*clefF4	*
8C#J	[8c#	16a#
.	.	16bnJ
=52	=52	=52
4F#	16c#]L	16a#L
.	16B#	16g#
.	16A#	16f#
.	16B#J	16g#J
4E#	16c#L	8ee#L
.	16B#	.
.	16A#	8cc#J
.	16G#J	.
8D#L	[4A#	8g#L
8C#J	.	16f#
.	.	16e#J
4BB#	16A#]L	8f#L
.	16G#	.
.	16F#	8dd#J
.	16A#J	.
=53	=53	=53
4C#	16G#L	8e#L
.	16F#	.
.	16E#	8cc#J
.	16G#J	.
4GG#	16F#L	8d#L
.	16E#	.
.	16D#	8b#J
.	16F#J	.
8AA#	16E#L	16c#L
.	16G#	16e#
8r	16A#	16f#
.	16B#J	16g#J
4r	16c#L	16a#L
.	16B#	16b#
.	16A#	16cc#
.	16G#J	16dd#J
=54	=54	=54
4r	16F##L	16eenL
.	16G#	16dd#
.	16A#	16cc#
.	16F##J	16dd#J
16r	[4D#	16eeL
16C#L	.	16ff##
16BB#	.	16gg#
16AA#J	.	16aa#J
4GG#	16D#]L	16cc#L
.	16D#	16b#
.	16E#	16a#
.	16F#J	16g#J
4r	16G#L	8dd#L
.	16A#	.
.	16B#	8f#J
.	16G#J	.
=55	=55	=55
*	*	*^
!! Four-voice material to the end:
8r	4c#	8e#L	8e#L
8EE#	.	8cc#J	8g# 8c#J
8FF#L	4d#	8d#L	8a# 8f#L
8GG#J	.	8b#J	8g# 8f#J
2CC#;	2c#;	2cc#;	2g#; 2e#;
*	*	*v	*v
==	==	==
*-	*-	*-
!!!OTA: Das wohltemperirte Clavier
!!!OCY: Deutschland
!!!PPP: Coethen; Cothen
!!!ODT: <1722//
!!!PDT: 1722
!!!AFR: fuga; fugue
!!!AST: polyphony
!!!AMT: simple quadruple
!!!SCA: Bach-Werke-Verzeichnis
!!!YOR: Bach-Gesellschaft Ausgabe, Band 14
!!!YOO: Breitkopf und Härtel
!!!YOY: 1866
!!!YOE: Franz Kroll (1820-1877)
!!!AIN: cemba; clavi
!!!YEC: Copyright 1994, David Huron
!!!YEM: Rights to all derivative electronic formats reserved.
!!!ENC: David Huron
!!!END: 1986/11/15
!!!EED: David Huron
!!!YER: 1994/08/10
!!!EED2: Craig Stuart Sapp (notational niceties)
!!!EEV: 2020/10/05
!!!EFL: 3/48
